!!! OTL: Berkowitz35
!!! Chapter: 1
!!! Section: I
!!! Page: 11
!!! Mode: 
!!! Encoder: DJB
**kern
*staff1
*I"Piano
=1-
*clefG2
*k[f#]
*G:
*M4/4
4g/
4b\
4dd\
4g/
=2
4.f#/
8g/
2a/
=3
4.a/
8b\
4cc\
4a/
=4
4b\
4cc\
2dd\
=5
4.ee\
8ee\
4.dd\
8dd\
=6
4.cc\
8cc\
2b\
=7
4a/
8b\L
8cc\J
4b\
4a/
=8
1g
==
*-
